X:1
T: Kildrummy Castle
C:Alexander Walker
R:Strathspey
Q: 128
K:Bm
M:4/4
L:1/16
C2|D3F F3E1/2D1/2 F2B2 B4|A3F EFED C3A, A,2B,C|D3F F3E1/2D1/2 F2B2 B2A^G|A3F FEDC B,4 B,2C2|
D3F F3E1/2D1/2 F2B2 B4|A3F EFED C3A, A,2B,C|D3F F3E1/2D1/2 F2B2 B2A^G|A3F FEDC B,4 B,2DC|
B,B3 B3A BF3 F3E|F3A E3F C2E2 DCB,A,|B,B3 B3A BF3 F3E|A3F FEDC B,4 B,2DC|
B,B3 B3A BF3 F3E|F3A E3F C2E2 DCB,A,|B,3C D3E F3E FB3|d2B2 fedc B4 B2f2|
b3B d2f2 B2b2 fedc|a2A2 c2e2 A2a2 fedc|b2B2 d2f2 B2b2 fedc|a2fa fedc B4 B2f2|
b3B d2f2 B2b2 fedc|a2A2 c2e2 A2a2 fedc|B3b a3b f3a e2f2|dcde fedc B4 B2Bc|
d3B B,2B2 F3B FEDC|A3E C2E2 A,2E2 DCB,A,|d3B B,2B2 F2B2 FEDC|A3F FEDC B,4 B,2Bc|
d3B B,2B2 F3B FEDC|A3E C2E2 A,2E2 DCB,A,|B,3D C2E2 D3E F2B2|A3F FEDC B,4 B,2||
